images/svg/instagram.svg

<?xml version="1.0" encoding="UTF-8" standalone="no"?>
<svg width="21px" height="21px" viewBox="0 0 21 21" version="1.1" xmlns="http://www.w3.org/2000/svg" xmlns:xlink="http://www.w3.org/1999/xlink">
    <!-- Generator: Sketch 46.1 (44463) - http://www.bohemiancoding.com/sketch -->
    <title>instagram</title>
    <desc>Created with Sketch.</desc>
    <defs></defs>
    <g id="Page-1" stroke="none" stroke-width="1" fill="none" fill-rule="evenodd">
        <g id="Home-Page" transform="translate(-373.000000, -380.000000)" fill="#484848">
            <g id="Group-16" transform="translate(250.000000, 150.000000)">
                <g id="instagram" transform="translate(123.000000, 230.000000)">
                    <path d="M18.375,19.03125 L2.625,19.03125 C2.26275,19.03125 1.96875,18.73725 1.96875,18.375 L1.96875,8.53125 L4.59375,8.53125 C4.25184375,9.0234375 4.13634375,9.94153125 4.13634375,10.5242813 C4.13634375,14.0385 7.0021875,16.8977813 10.5242812,16.8977813 C14.0470312,16.8977813 16.912875,14.0385 16.912875,10.5242813 C16.912875,9.94153125 16.8301875,9.03721875 16.40625,8.53125 L19.03125,8.53125 L19.03125,18.375 C19.03125,18.73725 18.73725,19.03125 18.375,19.03125 M10.5242812,6.4955625 C12.754875,6.4955625 14.5628437,8.29959375 14.5628437,10.5242813 C14.5628437,12.749625 12.754875,14.5536563 10.5242812,14.5536563 C8.29434375,14.5536563 6.486375,12.749625 6.486375,10.5242813 C6.486375,8.29959375 8.29434375,6.4955625 10.5242812,6.4955625 M15.75,2.625 L17.71875,2.625 C18.081,2.625 18.375,2.919 18.375,3.28125 L18.375,5.25 C18.375,5.61225 18.081,5.90625 17.71875,5.90625 L15.75,5.90625 C15.38775,5.90625 15.09375,5.61225 15.09375,5.25 L15.09375,3.28125 C15.09375,2.919 15.38775,2.625 15.75,2.625 M18.503625,0 L2.496375,0 C1.11759375,0 0,1.11496875 0,2.49046875 L0,18.5095313 C0,19.8850313 1.11759375,21 2.496375,21 L18.503625,21 C19.8824063,21 21,19.8850313 21,18.5095313 L21,2.49046875 C21,1.11496875 19.8824063,0 18.503625,0" id="Fill-23"></path>
                </g>
            </g>
        </g>
    </g>
</svg>

<svg width="21" height="21" viewBox="0 0 21 21" xmlns="http://www.w3.org/2000/svg"><title>instagram</title><desc>Created with Sketch.</desc><path d="M18.375 19.03H2.625c-.362 0-.656-.293-.656-.655V8.53h2.624c-.342.493-.458 1.412-.458 1.994 0 3.515 2.866 6.374 6.388 6.374 3.523 0 6.39-2.86 6.39-6.374 0-.582-.084-1.487-.508-1.993h2.625v9.845c0 .362-.293.656-.655.656m-7.85-12.534c2.23 0 4.038 1.804 4.038 4.028 0 2.226-1.808 4.03-4.04 4.03-2.23 0-4.037-1.804-4.037-4.03 0-2.224 1.808-4.028 4.038-4.028m5.226-3.87h1.97c.36 0 .655.293.655.655v1.97c0 .362-.294.656-.656.656h-1.97c-.362 0-.656-.294-.656-.656V3.28c0-.36.294-.655.656-.655M18.504 0H2.496C1.118 0 0 1.115 0 2.49v16.02C0 19.885 1.118 21 2.496 21h16.008C19.882 21 21 19.885 21 18.51V2.49C21 1.115 19.882 0 18.504 0" fill="#484848"/></svg>
